SVG_Azure_All/Intune Device Security.svg

<?xml version="1.0" encoding="UTF-8" standalone="no"?>
<!-- Generated by Microsoft Visio, SVG Export Intune Device Security.svg Page-1 -->

<svg
   xmlns:dc="http://purl.org/dc/elements/1.1/"
   xmlns:cc="http://creativecommons.org/ns#"
   xmlns:rdf="http://www.w3.org/1999/02/22-rdf-syntax-ns#"
   xmlns:svg="http://www.w3.org/2000/svg"
   xmlns="http://www.w3.org/2000/svg"
   xmlns:sodipodi="http://sodipodi.sourceforge.net/DTD/sodipodi-0.dtd"
   xmlns:inkscape="http://www.inkscape.org/namespaces/inkscape"
   width="0.78737998in"
   height="0.78739029in"
   viewBox="0 0 56.691357 56.692242"
   xml:space="preserve"
   class="st5"
   version="1.1"
   id="svg70"
   sodipodi:docname="Intune Device Security.svg"
   style="font-size:12px;overflow:visible;color-interpolation-filters:sRGB;fill:none;fill-rule:evenodd;stroke-linecap:square;stroke-miterlimit:3"
   inkscape:version="0.92.5 (2060ec1f9f, 2020-04-08)"><metadata
   id="metadata74"><rdf:RDF><cc:Work
       rdf:about=""><dc:format>image/svg+xml</dc:format><dc:type
         rdf:resource="http://purl.org/dc/dcmitype/StillImage" /></cc:Work></rdf:RDF></metadata><sodipodi:namedview
   pagecolor="#ffffff"
   bordercolor="#666666"
   borderopacity="1"
   objecttolerance="10"
   gridtolerance="10"
   guidetolerance="10"
   inkscape:pageopacity="0"
   inkscape:pageshadow="2"
   inkscape:window-width="640"
   inkscape:window-height="480"
   id="namedview72"
   showgrid="false"
   inkscape:zoom="1.8365233"
   inkscape:cx="37.795184"
   inkscape:cy="18.9025"
   inkscape:window-x="0"
   inkscape:window-y="0"
   inkscape:window-maximized="0"
   inkscape:current-layer="svg70" />
	<style
   type="text/css"
   id="style2">
	<![CDATA[
		.st1 {fill:#5ea0ef;stroke:none;stroke-linecap:butt;stroke-width:0.75}
		.st2 {fill:url(#grad0-8);stroke:none;stroke-linecap:butt;stroke-width:0.75}
		.st3 {fill:#83b9f9;stroke:none;stroke-linecap:butt;stroke-width:0.75}
		.st4 {fill:#ffffff;fill-opacity:0.7;stroke:none;stroke-linecap:butt;stroke-width:0.75}
		.st5 {fill:none;fill-rule:evenodd;font-size:12px;overflow:visible;stroke-linecap:square;stroke-miterlimit:3}
	]]>
	</style>

	<defs
   id="Patterns_And_Gradients">
		<linearGradient
   id="grad0-8"
   x1="0"
   y1="48.574328"
   x2="39.720525"
   y2="48.574328"
   gradientTransform="scale(0.91615104,1.0915231)"
   gradientUnits="userSpaceOnUse">
			<stop
   offset="0"
   stop-color="#0078d4"
   stop-opacity="1"
   id="stop4" />
			<stop
   offset="1"
   stop-color="#83b9f9"
   stop-opacity="1"
   id="stop6" />
		</linearGradient>
	</defs>
	<g
   id="g68"
   transform="translate(-5.6693772,-5.67367)">
		<title
   id="title10">Page-1</title>
		<g
   id="group4020-1"
   transform="translate(5.66929,-34.0157)">
			<title
   id="title12">Intune Device Security</title>
			<g
   id="group4021-2">
				<title
   id="title14">bac6293a-af63-4cea-ac41-34ab61f</title>
				<g
   id="shape4022-3"
   transform="translate(0,-9.41063)">
					<title
   id="title16">Sheet.4022</title>
					<path
   d="m 39.68,71.17 c 0,12.72 -15.76,22.95 -19.18,25.03 a 1.26887,1.25984 0 0 1 -1.31,0 C 15.76,94.14 0,83.89 0,71.17 V 55.88 a 1.23714,1.22835 0 0 1 1.22,-1.22 c 12.26,-0.32 9.44,-5.56 18.62,-5.56 9.19,0 6.37,5.24 18.63,5.56 a 1.23714,1.22835 0 0 1 1.21,1.22 z"
   class="st1"
   id="path18"
   inkscape:connector-curvature="0"
   style="fill:#5ea0ef;stroke:none;stroke-width:0.75;stroke-linecap:butt" />
				</g>
				<g
   id="shape4023-5"
   transform="translate(1.64635,-11.3714)">
					<title
   id="title21">Sheet.4023</title>
					<path
   d="m 36.39,73.26 c 0,11.66 -14.45,21.05 -17.59,22.95 a 1.16101,1.15276 0 0 1 -1.2,0 C 14.45,94.32 0,84.92 0,73.26 V 59.25 a 1.13246,1.12441 0 0 1 1.12,-1.12 c 11.24,-0.3 8.65,-5.11 17.08,-5.11 8.42,0 5.83,4.81 17.06,5.1 a 1.13246,1.12441 0 0 1 1.12,1.12 z"
   class="st2"
   id="path23"
   inkscape:connector-curvature="0"
   style="fill:url(#grad0-8);stroke:none;stroke-width:0.75;stroke-linecap:butt" />
				</g>
				<g
   id="shape4024-9"
   transform="translate(18.0115)">
					<title
   id="title26">Sheet.4024</title>
					<path
   d="m 1.23,66.87 h 36.22 a 1.17053,1.1622 0 0 1 1.23,1.09 v 27.33 a 1.17053,1.1622 0 0 1 -1.23,1.09 H 1.23 A 1.17053,1.1622 0 0 1 0,95.29 V 67.96 a 1.1737,1.16535 0 0 1 1.23,-1.09 z"
   class="st3"
   id="path28"
   inkscape:connector-curvature="0"
   style="fill:#83b9f9;stroke:none;stroke-width:0.75;stroke-linecap:butt" />
				</g>
				<g
   id="shape4025-11"
   transform="translate(18.0115,-24.3622)">
					<title
   id="title31">Sheet.4025</title>
					<path
   d="m 1.16,91.23 h 36.36 a 1.10391,1.09606 0 0 1 1.16,1.03 v 4.12 H 0 v -4.12 a 1.10709,1.09921 0 0 1 1.16,-1.03 z"
   class="st4"
   id="path33"
   inkscape:connector-curvature="0"
   style="fill:#ffffff;fill-opacity:0.7;stroke:none;stroke-width:0.75;stroke-linecap:butt" />
				</g>
				<g
   id="shape4026-13"
   transform="translate(26.5986,-11.2346)">
					<title
   id="title36">Sheet.4026</title>
					<path
   d="M 24.83,93.98 H 0.95 C 0.42,93.98 0,94.22 0,94.52 v 1.32 c 0,0.3 0.43,0.54 0.95,0.54 h 23.88 c 0.53,0 0.95,-0.24 0.95,-0.54 v -1.32 c 0.01,-0.3 -0.42,-0.54 -0.95,-0.54 z"
   class="st4"
   id="path38"
   inkscape:connector-curvature="0"
   style="fill:#ffffff;fill-opacity:0.7;stroke:none;stroke-width:0.75;stroke-linecap:butt" />
				</g>
				<g
   id="shape4027-15"
   transform="translate(26.5986,-17.263)">
					<title
   id="title41">Sheet.4027</title>
					<path
   d="M 24.83,93.98 H 0.95 C 0.42,93.98 0,94.22 0,94.52 v 1.32 c 0,0.3 0.43,0.54 0.95,0.54 h 23.88 c 0.53,0 0.95,-0.24 0.95,-0.54 v -1.32 c 0.01,-0.3 -0.42,-0.54 -0.95,-0.54 z"
   class="st4"
   id="path43"
   inkscape:connector-curvature="0"
   style="fill:#ffffff;fill-opacity:0.7;stroke:none;stroke-width:0.75;stroke-linecap:butt" />
				</g>
				<g
   id="shape4028-17"
   transform="translate(26.4717,-2.89449)">
					<title
   id="title46">Sheet.4028</title>
					<path
   d="M 26.49,93.83 H 1.03 C 0.46,93.83 0,94.09 0,94.4 v 1.41 c 0,0.31 0.46,0.57 1.03,0.57 h 25.46 c 0.57,0 1.03,-0.26 1.03,-0.57 V 94.4 c 0,-0.31 -0.46,-0.57 -1.03,-0.57 z"
   class="st4"
   id="path48"
   inkscape:connector-curvature="0"
   style="fill:#ffffff;fill-opacity:0.7;stroke:none;stroke-width:0.75;stroke-linecap:butt" />
				</g>
				<g
   id="shape4029-19"
   transform="translate(21.0505,-16.8913)">
					<title
   id="title51">Sheet.4029</title>
					<ellipse
   cx="1.57974"
   cy="94.809402"
   rx="1.57974"
   ry="1.5685"
   class="st4"
   id="ellipse53"
   style="fill:#ffffff;fill-opacity:0.7;stroke:none;stroke-width:0.75;stroke-linecap:butt" />
				</g>
				<g
   id="shape4030-21"
   transform="translate(21.0505,-10.863)">
					<title
   id="title56">Sheet.4030</title>
					<ellipse
   cx="1.57974"
   cy="94.809402"
   rx="1.57974"
   ry="1.5685"
   class="st4"
   id="ellipse58"
   style="fill:#ffffff;fill-opacity:0.7;stroke:none;stroke-width:0.75;stroke-linecap:butt" />
				</g>
				<g
   id="shape4031-23"
   transform="translate(20.5651,-2.49134)">
					<title
   id="title61">Sheet.4031</title>
					<ellipse
   cx="1.68442"
   cy="94.705498"
   rx="1.68442"
   ry="1.6724401"
   class="st4"
   id="ellipse63"
   style="fill:#ffffff;fill-opacity:0.7;stroke:none;stroke-width:0.75;stroke-linecap:butt" />
				</g>
			</g>
		</g>
	</g>
</svg>

<?xml version="1.0" encoding="UTF-8" standalone="no"?>
<!DOCTYPE svg PUBLIC "-//W3C//DTD SVG 1.1//EN" "http://www.w3.org/Graphics/SVG/1.1/DTD/svg11.dtd">
<!-- Generated by Microsoft Visio, SVG Export Intune Device Security.svg Page-1 -->
<svg xmlns="http://www.w3.org/2000/svg" xmlns:xlink="http://www.w3.org/1999/xlink" xmlns:ev="http://www.w3.org/2001/xml-events"
		width="0.944882in" height="1.33858in" viewBox="0 0 68.0315 96.378" xml:space="preserve" color-interpolation-filters="sRGB"
		class="st5">
	<style type="text/css">
	<![CDATA[
		.st1 {fill:#5ea0ef;stroke:none;stroke-linecap:butt;stroke-width:0.75}
		.st2 {fill:url(#grad0-8);stroke:none;stroke-linecap:butt;stroke-width:0.75}
		.st3 {fill:#83b9f9;stroke:none;stroke-linecap:butt;stroke-width:0.75}
		.st4 {fill:#ffffff;fill-opacity:0.7;stroke:none;stroke-linecap:butt;stroke-width:0.75}
		.st5 {fill:none;fill-rule:evenodd;font-size:12px;overflow:visible;stroke-linecap:square;stroke-miterlimit:3}
	]]>
	</style>

	<defs id="Patterns_And_Gradients">
		<linearGradient id="grad0-8" x1="0" y1="0" x2="1" y2="0" gradientTransform="rotate(-124.74681367405 0.5 0.5)">
			<stop offset="0" stop-color="#0078d4" stop-opacity="1"/>
			<stop offset="1" stop-color="#83b9f9" stop-opacity="1"/>
		</linearGradient>
	</defs>
	<g>
		<title>Page-1</title>
		<g id="group3936-1" transform="translate(5.66929,-34.0157)">
			<title>Intune Device Security</title>
			<g id="group3937-2">
				<title>bac6293a-af63-4cea-ac41-34ab61f</title>
				<g id="shape3938-3" transform="translate(-2.8777E-13,-9.41063)">
					<title>Sheet.3938</title>
					<path d="M39.68 71.17 C39.68 83.89 23.92 94.12 20.5 96.2 A1.26887 1.25984 0 0 1 19.19 96.2 C15.76 94.14 0 83.89
								 0 71.17 L0 55.88 A1.23714 1.22835 0 0 1 1.22 54.66 C13.48 54.34 10.66 49.1 19.84 49.1 C29.03 49.1
								 26.21 54.34 38.47 54.66 A1.23714 1.22835 0 0 1 39.68 55.88 L39.68 71.17 Z" class="st1"/>
				</g>
				<g id="shape3939-5" transform="translate(1.64635,-11.3714)">
					<title>Sheet.3939</title>
					<path d="M36.39 73.26 C36.39 84.92 21.94 94.31 18.8 96.21 A1.16101 1.15276 0 0 1 17.6 96.21 C14.45 94.32 0 84.92
								 0 73.26 L0 59.25 A1.13246 1.12441 0 0 1 1.12 58.13 C12.36 57.83 9.77 53.02 18.2 53.02 C26.62 53.02
								 24.03 57.83 35.26 58.12 A1.13246 1.12441 0 0 1 36.38 59.24 L36.39 73.26 Z" class="st2"/>
				</g>
				<g id="shape3940-9" transform="translate(18.0115,1.42109E-14)">
					<title>Sheet.3940</title>
					<path d="M1.23 66.87 L37.45 66.87 A1.17053 1.1622 0 0 1 38.68 67.96 L38.68 95.29 A1.17053 1.1622 0 0 1 37.45
								 96.38 L1.23 96.38 A1.17053 1.1622 0 0 1 -0 95.29 L0 67.96 A1.1737 1.16535 0 0 1 1.23 66.87 Z"
							class="st3"/>
				</g>
				<g id="shape3941-11" transform="translate(18.0115,-24.3622)">
					<title>Sheet.3941</title>
					<path d="M1.16 91.23 L37.52 91.23 A1.10391 1.09606 0 0 1 38.68 92.26 L38.68 96.38 L0 96.38 L0 92.26 A1.10709
								 1.09921 0 0 1 1.16 91.23 Z" class="st4"/>
				</g>
				<g id="shape3942-13" transform="translate(26.5986,-11.2346)">
					<title>Sheet.3942</title>
					<path d="M24.83 93.98 L0.95 93.98 C0.42 93.98 0 94.22 0 94.52 L0 95.84 C0 96.14 0.43 96.38 0.95 96.38 L24.83
								 96.38 C25.36 96.38 25.78 96.14 25.78 95.84 L25.78 94.52 C25.79 94.22 25.36 93.98 24.83 93.98 Z"
							class="st4"/>
				</g>
				<g id="shape3943-15" transform="translate(26.5986,-17.263)">
					<title>Sheet.3943</title>
					<path d="M24.83 93.98 L0.95 93.98 C0.42 93.98 0 94.22 0 94.52 L0 95.84 C0 96.14 0.43 96.38 0.95 96.38 L24.83
								 96.38 C25.36 96.38 25.78 96.14 25.78 95.84 L25.78 94.52 C25.79 94.22 25.36 93.98 24.83 93.98 Z"
							class="st4"/>
				</g>
				<g id="shape3944-17" transform="translate(26.4717,-2.89449)">
					<title>Sheet.3944</title>
					<path d="M26.49 93.83 L1.03 93.83 C0.46 93.83 0 94.09 0 94.4 L0 95.81 C0 96.12 0.46 96.38 1.03 96.38 L26.49 96.38
								 C27.06 96.38 27.52 96.12 27.52 95.81 L27.52 94.4 C27.52 94.09 27.06 93.83 26.49 93.83 Z"
							class="st4"/>
				</g>
				<g id="shape3945-19" transform="translate(21.0505,-16.8913)">
					<title>Sheet.3945</title>
					<ellipse cx="1.57974" cy="94.8094" rx="1.57974" ry="1.5685" class="st4"/>
				</g>
				<g id="shape3946-21" transform="translate(21.0505,-10.863)">
					<title>Sheet.3946</title>
					<ellipse cx="1.57974" cy="94.8094" rx="1.57974" ry="1.5685" class="st4"/>
				</g>
				<g id="shape3947-23" transform="translate(20.5651,-2.49134)">
					<title>Sheet.3947</title>
					<ellipse cx="1.68442" cy="94.7055" rx="1.68442" ry="1.67244" class="st4"/>
				</g>
			</g>
		</g>
	</g>
</svg>
